X: 1
T: Boys From Ballydowse, The
C: David Foley
M: 6/8
R: Jig
L: 1/8
S: "Despite the Dark" by Rura
K: Bm
|:B2f fef|d2 B BAB|c2 B BAB|c2 B ABc|
B2f fef|d2 B BAB|c2 B ABc|1 c2 B- Bdc:|2 c2 B- Bef ||
|: a2 f- f^ga|b2 a f2 e|f2B BAB|c2f ecA|
[1a2 f- f^ga|b2 a f2 e|f2B BAB|c2 B Bef:|
[2B2f fef|d2 B BAB|c2 B ABc| cBc efa||
|:b2 a- a^gf|a2 ^g- gfe|^g2 a fBB|ABc efa|
b2 a- a^gf|a2 ^g- gfe|^g2 a fBB|ABc c2B:| 
